X: 6926
T: Cherish The Ladies
R: jig
M: 6/8
K: Dmajor
dFF AFF|DFA AGF|GEE BEE|GBA GFE|
dFF AFF|DFA AGF|ABd efg|fdd d3:|
|:d3 fed|afd fed|c>de/f/ gfg|ece gfe|fga bag|
agf edc|1 dcB AGF|GEF GFE:|2 dcB AFA|Bdd d3||

